X:2886
T:Hurra for deg som fyller
C:anon., words: Margrethe Munthe
O:Norway
N:This is how the tune i usually sung today. It's slightly different
N:from the original (see: "Her er det land").
R:Birthday song
Z:Transcribed by Frank Nordberg - http://www.musicaviva.com
F:http://abc.musicaviva.com/tunes/norway/hurra-for-deg-som/hurra-for-deg-som-1.abc
M:3/4
L:1/8
K:F
"F"F2Ac AF|"C"E2GE CC|"F"F2Ac AF|"C"E2"F"F2 z2:|
w:Hur-ra for deg som fyl-ler i \aar! Ja, deg vil vi gra-tu-le-re!
w:Al-le i ring om-kring deg vi st\aar, og se, m\aa vil vi marsj-e-re,
"Bb"BB BB BB|"F"A2AAA2S|"C7"G2 GG GG|"F"(FG) AB c2S|



